src/assets/patio.svg

<svg width="66" height="66" viewBox="0 0 66 66" fill="none" xmlns="http://www.w3.org/2000/svg">
<circle cx="33" cy="33" r="33" fill="#EEEEEE"/>
<path d="M35.6525 13C27.1897 13 20.3049 19.8995 20.3049 28.3802C20.3049 29.0151 20.8218 29.5297 21.4554 29.5297C21.835 29.5297 22.19 29.3415 22.4037 29.0269C22.991 28.1623 23.9633 27.6461 25.0046 27.6461C26.046 27.6461 27.0183 28.1622 27.6056 29.0269C27.8192 29.3415 28.1742 29.5297 28.5539 29.5297C28.9335 29.5297 29.2885 29.3415 29.5022 29.0269C30.0895 28.1623 31.0619 27.6461 32.1032 27.6461C33.0346 27.6461 33.91 28.06 34.505 28.766V36.3316H33.5412C32.9076 36.3316 32.3941 36.8463 32.3941 37.4811C32.3941 38.1159 32.9077 38.6306 33.5412 38.6306H34.505V43.09H24.3861L16.9582 35.6467C16.5103 35.1978 15.7839 35.1978 15.336 35.6467C14.888 36.0955 14.888 36.8234 15.336 37.2723L23.0998 45.0526C23.3149 45.2682 23.6066 45.3893 23.9109 45.3893H28.1121L25.0394 50.2337C24.6996 50.7694 24.8575 51.4799 25.3921 51.8205C25.9268 52.161 26.6356 52.0027 26.9755 51.467L30.8306 45.3893H34.5048V50.8503C34.5048 51.4852 35.0184 51.9998 35.6519 51.9998C36.2855 51.9998 36.799 51.4852 36.799 50.8503V45.3893H40.4732L44.3283 51.467C44.5468 51.8116 44.918 52 45.2975 52C45.5079 52 45.7209 51.942 45.9117 51.8205C46.4464 51.4799 46.6043 50.7694 46.2644 50.2337L43.1917 45.3893H47.3929C48.0264 45.3893 48.5399 44.8747 48.5399 44.2398C48.5399 43.6049 48.0263 43.0903 47.3929 43.0903H36.7991V38.6309H37.7638C38.3973 38.6309 38.9109 38.1162 38.9109 37.4814C38.9109 36.8466 38.3973 36.3319 37.7638 36.3319H36.7991V28.7673C37.3939 28.0607 38.2697 27.6463 39.2017 27.6463C40.2431 27.6463 41.2155 28.1625 41.8027 29.0272C42.0163 29.3417 42.3714 29.5299 42.751 29.5299C43.1305 29.5299 43.4856 29.3417 43.6992 29.0272C44.2866 28.1625 45.2589 27.6463 46.3003 27.6463C47.3416 27.6463 48.314 28.1625 48.9012 29.0272C49.1149 29.3417 49.4733 29.5299 49.8529 29.5299C50.4865 29.5299 51 29.0152 51 28.3804C51.0001 19.8995 44.1152 13 35.6525 13ZM46.3004 25.3472C44.9814 25.3472 43.7269 25.8253 42.7511 26.6681C41.7753 25.8254 40.5207 25.3472 39.2018 25.3472C37.9664 25.3472 36.7875 25.7668 35.8413 26.5124C35.7796 26.5022 35.7167 26.4955 35.6521 26.4955C35.5878 26.4955 35.5251 26.5021 35.4637 26.5123C34.5175 25.7666 33.3387 25.3471 32.1033 25.3471C30.7844 25.3471 29.5298 25.8254 28.554 26.668C27.5782 25.8254 26.3235 25.3471 25.0047 25.3471C24.2545 25.3471 23.5251 25.5019 22.8561 25.7902C24.0585 19.8133 29.3392 15.2991 35.6527 15.2991C41.9661 15.2991 47.2466 19.8133 48.449 25.7903C47.78 25.5019 47.0503 25.3472 46.3004 25.3472Z" fill="#2F2F2F"/>
</svg>

<svg width="66" height="66" fill="none" xmlns="http://www.w3.org/2000/svg"><circle cx="33" cy="33" r="33" fill="#EEE"/><path d="M35.7 13c-8.5 0-15.4 6.9-15.4 15.4a1.2 1.2 0 002.1.6 3.1 3.1 0 015.2 0 1.1 1.1 0 001.9 0 3.1 3.1 0 015-.2v7.5h-1a1.1 1.1 0 000 2.3h1v4.5H24.4L17 35.6c-.5-.4-1.2-.4-1.7 0-.4.5-.4 1.2 0 1.7l7.8 7.8c.2.2.5.3.8.3h4.2l-3 4.8c-.4.6-.2 1.3.3 1.6.5.4 1.2.2 1.6-.3l3.8-6.1h3.7v5.5a1.1 1.1 0 102.3 0v-5.5h3.7l3.8 6a1.1 1.1 0 102-1.2l-3.1-4.8h4.2a1.1 1.1 0 000-2.3H36.8v-4.5h1a1.1 1.1 0 000-2.3h-1v-7.5a3.1 3.1 0 015 .2 1.1 1.1 0 001.9 0 3.1 3.1 0 015.2 0c.2.3.6.5 1 .5.6 0 1.1-.5 1.1-1.1C51 19.9 44.1 13 35.7 13zm10.6 12.3c-1.3 0-2.6.5-3.5 1.4a5.4 5.4 0 00-7-.2 1.2 1.2 0 00-.3 0 5.4 5.4 0 00-7 .2 5.4 5.4 0 00-5.6-1 13 13 0 0125.5 0c-.6-.2-1.3-.4-2.1-.4z" fill="#2F2F2F"/></svg>
